!!!COM: Martinů, Bohuslav (Jan)
!!!OTL: [T504_Mau-w107p2-3m35-43]
**kern	**dynam	**kern	**dynam	**kern	**dynam
*grp:A	*grp:A	*grp:A	*grp:A	*grp:B	*grp:B
*part2	*	*part2	*part2	*part1	*part1
*staff3	*	*staff2	*	*staff1	*
*I"Piano	*	*	*	*I"Viola	*
*I'Pno.	*	*	*	*I'Vla.	*
*clefF4	*	*clefG2	*	*clefG2	*
*k[]	*	*k[]	*	*k[]	*
*C:	*	*C:	*	*C:	*
*M3/4	*	*M3/4	*	*M3/4	*
=35	=35	=35	=35	=35	=35
!	!	!	!	!LO:TX:t=[[quarter]=88]	!
!	!	!	!LO:DY:ed=brack	!	!LO:DY:ed=brack
8r	.	4f~	pp	8ryy	4ryy
8FF'	.	.	.	4ryy	.
8r	.	4d~	.	.	4ryy
8FFF'	.	.	.	4ryy	.
8GG'	.	8c'L	.	.	.
8r	.	[8fJ	.	8ryy	4ryy
=36	=36	=36	=36	=36	=36
8r	.	8f]	.	4ryy	.
8BB-X'	.	(4B-X 4d	<	.	.
8BBB-X'	.	.	.	2ryy	.
4.FFF [4.FF	.	4A 4c)	.	.	.
.	.	[8F	[	.	.
=37	=37	=37	=37	=37	=37
8FF]	.	8F]	p	8ryy	.
8r	.	(4B-X 4d	.	4ryy	4ryy
8BB-X'	.	.	.	.	.
8r	.	4A 4c)	.	4ryy	.
8BBB-X'L	.	.	.	.	.
8C'J	.	8F'	< [	8ryy	4ryy
=38	=38	=38	=38	=38	=38
*M4/4	*	*M4/4	*	*M4/4	*
8r	.	(4B-X 4d	.	8ryy	4ryy
8BB-X'	.	.	.	4ryy	.
8r	.	4A 4c)	.	.	.
8BBB-X'	.	.	.	8ryy	.
8C'	.	8F'	>	8ryy	.
8r'	.	(4B- 4d	]	4ryy	.
8BB-'	.	.	.	.	.
8r	.	[8A [8c	.	8ryy	.
!!linebreak:original
=39	=39	=39	=39	=39	=39
*M3/4	*	*M3/4	*	*M3/4	*
8FF'	.	8AL] 8c])	.	8ryy	.
8r	.	8F'J	.	8ryy	.
2FF 2F	.	4B-X 4d 4f	.	4ryy	.
.	.	4A 4c 4f	.	4ryy	.
=40	=40	=40	=40	=40	=40
*M2/4	*	*M2/4	*	*M2/4	*
[2FFF [2FF	.	8F'	.	2ryy	.
.	.	4B-X 4d 4f	<	.	.
.	.	[8A [8c [8f	.	.	.
=41	=41	=41	=41	=41	=41
8FFF] 8FF]	.	8AL] 8c] 8f]	.	4ryy	4ryy
8r	.	(8cJ	mp [	.	.
8r	.	4G 4c 4e-X	.	4ryy	.
8CC 8C	.	.	.	.	.
=42	=42	=42	=42	=42	=42
*M3/8	*	*M3/8	*	*M3/8	*
8r	.	4G 4B-X 4d)	.	4ryy	.
8AAA'L	.	.	.	.	.
8AA'J	.	(8G	.	8ryy	4ryy
=43	=43	=43	=43	=43	=43
*M6/8	*	*M6/8	*	*M6/8	*
8r'	.	4c 4e-X	.	4.ryy	.
8CC' 8C	.	.	.	.	.
8r'	.	[8B-X [8d	<	.	.
8AAA'L	.	8B-L] 8d])	.	4ryy	4ryy
!	!	!LO:TX:t=P:problem:Hanging slur not implemented yet	!	!	!
8AA'J	.	(8G	[	.	.
8r	.	8cJ 8e-	.	8ryy	4ryy
=	=	=	=	=	=
*-	*-	*-	*-	*-	*-
!!!system-decoration: s1[({(s2,s3)})]
!!!EED: Daniel Wright
!!!EEV: 2021/08/13
!!!EED2: Rafael Laurindo
!!!EEV2: 2022/02/06
